contributed-vectors/kupony.svg

<svg xmlns="http://www.w3.org/2000/svg" xml:space="preserve" style="fill-rule:evenodd;clip-rule:evenodd;stroke-linejoin:round;stroke-miterlimit:2" viewBox="0 0 192 192"><path d="M164.5 21.5c0-5.519-4.481-10-10-10h-133c-5.519 0-10 4.481-10 10v133c0 5.519 4.481 10 10 10h133c5.519 0 10-4.481 10-10v-133Z" style="fill:#fff" transform="translate(8 8)"/><path d="M154.298 111.543c0-.722-.553-1.308-1.236-1.308H40.722c-.682 0-1.236.586-1.236 1.308v.003c0 7.018 2.635 13.748 7.324 18.711 4.689 4.962 11.05 7.75 17.681 7.75h64.802c6.632 0 12.992-2.788 17.681-7.75 4.69-4.963 7.324-11.693 7.324-18.711v-.003Z" style="fill:#f8c18c" transform="matrix(.85174 0 0 .80487 13.387 18.962)"/><path d="M154.298 92.803c0-10.781-4.348-21.12-12.087-28.743-7.739-7.623-18.236-11.906-29.181-11.906H78.652c-10.945 0-21.442 4.283-29.181 11.906-7.739 7.623-12.087 17.962-12.087 28.743v.001h116.914v-.001Z" style="fill:#f8c18c" transform="matrix(.83642 0 0 .84917 15.75 17.673)"/><g transform="matrix(.85174 0 0 .78727 13.387 20.901)"><circle cx="84.253" cy="82.596" r="5.027" style="fill:#ba6561"/><circle cx="107.215" cy="85.079" r="2.544" style="fill:#ba6561"/><circle cx="107.215" cy="85.079" r="2.544" style="fill:#ba6561" transform="translate(26.81 -13.546)"/><circle cx="107.215" cy="85.079" r="2.544" style="fill:#ba6561" transform="translate(5.089 -22.98)"/><circle cx="107.215" cy="85.079" r="2.544" style="fill:#ba6561" transform="translate(-22.962 -21.614)"/><circle cx="107.215" cy="85.079" r="2.544" style="fill:#ba6561" transform="translate(-39.843 -15.036)"/><circle cx="119.898" cy="74.077" r="2.11" style="fill:#ba6561"/><circle cx="131.591" cy="85.465" r="2.186" style="fill:#ba6561"/><circle cx="91.783" cy="73.365" r="1.474" style="fill:#ba6561"/><circle cx="55.84" cy="86.889" r="2.084" style="fill:#ba6561"/></g><path d="M145.509 103.404s-13.108 16.334-16.285 17.764c-3.178 1.43-1.93 2.948-9.088-2.681-7.158-5.629-21.312-8.447-21.052-8.252.26.195 11.989-16.65 11.989-16.65l34.436 9.819Z" style="fill:#f9de81" transform="matrix(.85174 0 0 .78727 13.387 20.901)"/><path d="M47.72 98.979h-7.761A2.98 2.98 0 0 1 36.98 96a2.98 2.98 0 0 1 2.979-2.979h114.068A2.98 2.98 0 0 1 157.006 96a2.98 2.98 0 0 1-2.979 2.979h-1.797v4.699h-3.742v1.058h5.539a2.98 2.98 0 0 1 2.979 2.979 2.98 2.98 0 0 1-2.979 2.979H39.959a2.98 2.98 0 0 1-2.979-2.979 2.98 2.98 0 0 1 2.979-2.979h12.353v-1.058H47.72v-4.699Z" style="fill:#ba6561" transform="matrix(.85174 0 0 .78727 13.387 20.901)"/><path d="M149.663 106.382c8.405 1.907 8.54-10.382 0-8.721-8.54 1.661-47.067 5.743-68.416 1.318C59.899 94.554 47.352 96 47.352 96s-14.786.859-7.393 12.03 19.029-4.626 29.269-4.626c10.24 0 12.667 16.34 40.669 2.978 0 0 10.404-5.782 39.766 0" style="fill:#98dc9a" transform="matrix(.85174 0 0 .78727 13.387 20.901)"/></svg>

<?xml version="1.0" encoding="UTF-8" standalone="no"?>
<!DOCTYPE svg PUBLIC "-//W3C//DTD SVG 1.1//EN" "http://www.w3.org/Graphics/SVG/1.1/DTD/svg11.dtd">
<svg width="100%" height="100%" viewBox="0 0 192 192" version="1.1" xmlns="http://www.w3.org/2000/svg" xmlns:xlink="http://www.w3.org/1999/xlink" xml:space="preserve" xmlns:serif="http://www.serif.com/" style="fill-rule:evenodd;clip-rule:evenodd;stroke-linejoin:round;stroke-miterlimit:2;">
    <g id="Layer1">
        <g transform="matrix(1,0,0,1,8,8)">
            <path d="M164.5,21.5C164.5,15.981 160.019,11.5 154.5,11.5L21.5,11.5C15.981,11.5 11.5,15.981 11.5,21.5L11.5,154.5C11.5,160.019 15.981,164.5 21.5,164.5L154.5,164.5C160.019,164.5 164.5,160.019 164.5,154.5L164.5,21.5Z" style="fill:white;"/>
        </g>
        <g transform="matrix(0.851741,0,0,0.78727,13.3872,20.9015)">
            <g>
                <g transform="matrix(1,0,0,1.02235,0,-2.46336)">
                    <path d="M154.298,111.543C154.298,110.821 153.745,110.235 153.062,110.235C141.488,110.235 52.296,110.235 40.722,110.235C40.04,110.235 39.486,110.821 39.486,111.543C39.486,111.544 39.486,111.545 39.486,111.546C39.486,118.564 42.121,125.294 46.81,130.257C51.499,135.219 57.86,138.007 64.491,138.007L129.293,138.007C135.925,138.007 142.285,135.219 146.974,130.257C151.664,125.294 154.298,118.564 154.298,111.546L154.298,111.543Z" style="fill:rgb(248,193,140);"/>
                </g>
                <g>
                    <g transform="matrix(0.982018,0,0,1.07863,2.77452,-4.10067)">
                        <path d="M154.298,92.803C154.298,82.022 149.95,71.683 142.211,64.06C134.472,56.437 123.975,52.154 113.03,52.154L78.652,52.154C67.707,52.154 57.21,56.437 49.471,64.06C41.732,71.683 37.384,82.022 37.384,92.803L37.384,92.804L154.298,92.804L154.298,92.803Z" style="fill:rgb(248,193,140);"/>
                    </g>
                    <g>
                        <circle cx="84.253" cy="82.596" r="5.027" style="fill:rgb(186,101,97);"/>
                        <circle cx="107.215" cy="85.079" r="2.544" style="fill:rgb(186,101,97);"/>
                        <g transform="matrix(1,0,0,1,26.8101,-13.5461)">
                            <circle cx="107.215" cy="85.079" r="2.544" style="fill:rgb(186,101,97);"/>
                        </g>
                        <g transform="matrix(1,0,0,1,5.08896,-22.9793)">
                            <circle cx="107.215" cy="85.079" r="2.544" style="fill:rgb(186,101,97);"/>
                        </g>
                        <g transform="matrix(1,0,0,1,-22.9624,-21.614)">
                            <circle cx="107.215" cy="85.079" r="2.544" style="fill:rgb(186,101,97);"/>
                        </g>
                        <g transform="matrix(1,0,0,1,-39.8429,-15.0356)">
                            <circle cx="107.215" cy="85.079" r="2.544" style="fill:rgb(186,101,97);"/>
                        </g>
                        <circle cx="119.898" cy="74.077" r="2.11" style="fill:rgb(186,101,97);"/>
                        <circle cx="131.591" cy="85.465" r="2.186" style="fill:rgb(186,101,97);"/>
                        <circle cx="91.783" cy="73.365" r="1.474" style="fill:rgb(186,101,97);"/>
                        <circle cx="55.84" cy="86.889" r="2.084" style="fill:rgb(186,101,97);"/>
                    </g>
                </g>
            </g>
            <path d="M145.509,103.404C145.509,103.404 132.401,119.738 129.224,121.168C126.046,122.598 127.294,124.116 120.136,118.487C112.978,112.858 98.824,110.04 99.084,110.235C99.344,110.43 111.073,93.585 111.073,93.585L145.509,103.404Z" style="fill:rgb(249,222,129);"/>
            <path d="M47.72,98.979L39.959,98.979C38.315,98.979 36.98,97.644 36.98,96C36.98,94.356 38.315,93.021 39.959,93.021L154.027,93.021C155.671,93.021 157.006,94.356 157.006,96C157.006,97.644 155.671,98.979 154.027,98.979L152.23,98.979L152.23,103.678L148.488,103.678L148.488,104.736L154.027,104.736C155.671,104.736 157.006,106.071 157.006,107.715C157.006,109.359 155.671,110.694 154.027,110.694L39.959,110.694C38.315,110.694 36.98,109.359 36.98,107.715C36.98,106.071 38.315,104.736 39.959,104.736L52.312,104.736L52.312,103.678L47.72,103.678L47.72,98.979Z" style="fill:rgb(186,101,97);"/>
            <path d="M149.663,106.382C158.068,108.289 158.203,96 149.663,97.661C141.123,99.322 102.596,103.404 81.247,98.979C59.899,94.554 47.352,96 47.352,96C47.352,96 32.566,96.859 39.959,108.03C47.352,119.201 58.988,103.404 69.228,103.404C79.468,103.404 81.895,119.744 109.897,106.382C109.897,106.382 120.301,100.6 149.663,106.382" style="fill:rgb(152,220,154);"/>
        </g>
    </g>
</svg>
